X:12
T:The Wooden City Polkas
T:Wooden City Polka #1
C:Paddy O'Brien (Offaly)
R:polka
D:Snug in the Blanket,P.O'Brien,J.Gans,D.Sproule
Z:Paul Stewart Cranford (P.S.C.), <http://www.cranfordpub.com>
L:1/8
Q:333
M:2/4
K:Cmix
BA|G>G GB|de fd|gf ed|e/d/c BA|
G>G GB|de fd|gf ed|c2:|
|:(3def|g>g ga|b/a/g c'a|fd cg|ef dB|
g>g ga|b/a/g c'a|ef ge|c2:|
